X: 13
M:2/4
L:1/16
K:G
vdc|BGcG BGAF|{A}GFGA Bdef|{a}gfge dBAc|BGAF GDEF|\
|:uBc|.d.B.G.B .e.c.A.c|.f.c.A.f .g.d.B.b|.c'.e.e.c' .b.d.d.b|.a.g.f.e =
.d.c.B.c|\
.d.B.G.B .e.c.A.c|.f.c.A.f .g.d.B.b|c'eec' bddb|adef g2H:|


